src/main/resources/static/assets/img/logos/java.svg

<?xml version="1.0" encoding="UTF-8" standalone="no"?>
<svg width="256px" height="346px" viewBox="0 0 256 346" version="1.1" xmlns="http://www.w3.org/2000/svg" xmlns:xlink="http://www.w3.org/1999/xlink" preserveAspectRatio="xMidYMid">
	<g>
		<path d="M82.5539491,267.472524 C82.5539491,267.472524 69.35552,275.147869 91.9468218,277.745105 C119.315549,280.867375 133.303389,280.419607 163.463913,274.711273 C163.463913,274.711273 171.393396,279.683258 182.467491,283.989644 C114.855564,312.966982 29.4483782,282.311215 82.5539491,267.472524" fill="#5382A1"></path>
		<path d="M74.2921309,229.658996 C74.2921309,229.658996 59.4888145,240.616727 82.0968727,242.955171 C111.333004,245.971316 134.421411,246.218007 174.373236,238.524975 C174.373236,238.524975 179.899113,244.127185 188.588218,247.190807 C106.841367,271.094691 15.79008,249.075898 74.2921309,229.658996" fill="#5382A1"></path>
		<path d="M143.941818,165.514705 C160.601367,184.695156 139.564684,201.955142 139.564684,201.955142 C139.564684,201.955142 181.866124,180.117876 162.438982,152.772422 C144.294633,127.271098 130.380335,114.600495 205.706705,70.9138618 C205.706705,70.9138618 87.4691491,100.44416 143.941818,165.514705" fill="#E76F00"></path>
		<path d="M233.364015,295.441687 C233.364015,295.441687 243.131113,303.489396 222.60736,309.715316 C183.580858,321.537862 60.1748945,325.107898 25.8932364,310.186356 C13.5698618,304.825251 36.67968,297.385425 43.9491491,295.824291 C51.5304727,294.180305 55.8629236,294.486575 55.8629236,294.486575 C42.15808,284.832116 -32.7195927,313.443607 17.8287709,321.637469 C155.681513,343.993251 269.121164,311.570618 233.364015,295.441687" fill="#5382A1"></path>
		<path d="M88.9008873,190.479825 C88.9008873,190.479825 26.1287564,205.389265 66.6717091,210.803433 C83.7901964,213.095331 117.915462,212.576815 149.702284,209.913484 C175.680233,207.722124 201.765236,203.062924 201.765236,203.062924 C201.765236,203.062924 192.605091,206.985775 185.977949,211.510924 C122.233949,228.275665 -0.907636364,220.476509 34.5432436,203.328233 C64.5241018,188.83584 88.9008873,190.479825 88.9008873,190.479825" fill="#5382A1"></path>
		<path d="M201.506444,253.422313 C266.305164,219.7504 236.344785,187.392 215.432844,191.751447 C210.307258,192.818269 208.021876,193.742662 208.021876,193.742662 C208.021876,193.742662 209.924655,190.761891 213.558924,189.471651 C254.929455,174.927127 286.746065,232.368873 200.204102,255.11936 C200.204102,255.120291 201.206691,254.223825 201.506444,253.422313" fill="#5382A1"></path>
		<path d="M162.438982,0.371432727 C162.438982,0.371432727 198.325527,36.27008 128.402153,91.4720582 C72.3307055,135.753542 115.616116,161.001658 128.37888,189.848669 C95.6490473,160.318371 71.6297309,134.322735 87.7437673,110.128407 C111.395375,74.6132945 176.918342,57.3942691 162.438982,0.371432727" fill="#E76F00"></path>
		<path d="M95.2683055,344.665367 C157.466996,348.646865 252.980131,342.45632 255.24224,313.025629 C255.24224,313.025629 250.893964,324.182575 203.838371,333.042967 C150.750487,343.033484 85.2740655,341.867055 46.4393309,335.464262 C46.4402618,335.463331 54.3892945,342.043927 95.2683055,344.665367" fill="#5382A1"></path>
	</g>
</svg>

<svg id="레이어_1" data-name="레이어 1" xmlns="http://www.w3.org/2000/svg" viewBox="0 0 254.73 345.38"><defs><style>.cls-1{fill:#5382a1;}.cls-2{fill:#e76f00;}</style></defs><path class="cls-1" d="M82.55,267.47s-13.19,7.68,9.4,10.28c27.37,3.12,41.35,2.67,71.51-3a124.67,124.67,0,0,0,19,9.28c-67.61,29-153-1.68-99.92-16.52" transform="translate(-0.52 -0.37)"/><path class="cls-1" d="M74.29,229.66s-14.8,11,7.81,13.3c29.23,3,52.32,3.26,92.27-4.44a40.91,40.91,0,0,0,14.22,8.67c-81.75,23.9-172.8,1.89-114.3-17.53" transform="translate(-0.52 -0.37)"/><path class="cls-2" d="M143.94,165.51C160.6,184.7,139.56,202,139.56,202s42.31-21.84,22.88-49.19c-18.15-25.5-32.06-38.17,43.27-81.86,0,0-118.24,29.53-61.77,94.6" transform="translate(-0.52 -0.37)"/><path class="cls-1" d="M233.36,295.44s9.77,8.05-10.75,14.28c-39,11.82-162.44,15.39-196.72.47-12.32-5.36,10.79-12.8,18.06-14.37a46.79,46.79,0,0,1,11.91-1.33c-13.7-9.66-88.58,18.95-38,27.15,137.85,22.35,251.29-10.07,215.53-26.2" transform="translate(-0.52 -0.37)"/><path class="cls-1" d="M88.9,190.48S26.13,205.39,66.67,210.8c17.12,2.3,51.25,1.78,83-.89,26-2.19,52.07-6.85,52.07-6.85A111,111,0,0,0,186,211.51c-63.75,16.77-186.89,9-151.44-8.18,30-14.49,54.36-12.85,54.36-12.85" transform="translate(-0.52 -0.37)"/><path class="cls-1" d="M201.51,253.42c64.8-33.67,34.83-66,13.92-61.67a49.35,49.35,0,0,0-7.41,2,11.79,11.79,0,0,1,5.54-4.27c41.37-14.54,73.19,42.9-13.36,65.65a5.68,5.68,0,0,0,1.31-1.7" transform="translate(-0.52 -0.37)"/><path class="cls-2" d="M162.44.37s35.89,35.9-34,91.1c-56.07,44.28-12.78,69.53,0,98.38-32.73-29.53-56.75-55.53-40.64-79.72C111.4,74.61,176.92,57.39,162.44.37" transform="translate(-0.52 -0.37)"/><path class="cls-1" d="M95.27,344.67c62.2,4,157.71-2.21,160-31.64,0,0-4.35,11.15-51.4,20-53.09,10-118.57,8.83-157.4,2.42,0,0,8,6.58,48.83,9.21" transform="translate(-0.52 -0.37)"/></svg>
